X: 12432
T: Farewell Marian
R: waltz
M: 3/4
K: Fmajor
|:Ad A=B ^cd|e2 A2- A2|fg fe de|^c2 A2- A2|
Ad AG AF|Bd BA BG|FA F2 E2|D6:|
A2 c2- cA|G2 A2- A2|A2 c2- cd|e2 A2- A2|
f2 g2- gg|f2 e2 d2|ce c2 =B2|A6|
Ad A=B ^cd|e2 A2- A2|fg fe de|^c2 A2- A2|
Ad AG AF|Bd BA BG|FA F2 E2|D6||

